source/images/unibz-logo-white.svg

<?xml version="1.0" encoding="UTF-8" standalone="no"?>
<svg width="65px" height="52px" viewBox="0 0 65 52" version="1.1" xmlns="http://www.w3.org/2000/svg" xmlns:xlink="http://www.w3.org/1999/xlink" xmlns:sketch="http://www.bohemiancoding.com/sketch/ns">
    <!-- Generator: Sketch 3.3.3 (12081) - http://www.bohemiancoding.com/sketch -->
    <title>Unibz Logo Copy 10</title>
    <desc>Created with Sketch.</desc>
    <defs></defs>
    <g id="Page-1" stroke="none" stroke-width="1" fill="none" fill-rule="evenodd" sketch:type="MSPage">
        <g id="Artboard-13" sketch:type="MSArtboardGroup" transform="translate(-50.000000, -32.000000)" fill="#FFFFFF">
            <g id="Unibz-Logo-Copy-10" sketch:type="MSLayerGroup" transform="translate(50.000000, 32.000000)">
                <path d="M38.9284185,0.171170732 L64.5993354,0.171170732 L64.5993354,3.80490244 L38.9284185,3.80490244 L38.9284185,0.171170732 Z" id="Fill-1" sketch:type="MSShapeGroup"></path>
                <path d="M12.5738831,34.5035366 L9.01358769,34.5035366 L9.01358769,33.1694878 C8.056,34.1726098 6.84009846,34.672878 5.36457846,34.672878 C3.92297846,34.672878 2.76839385,34.2437073 1.90995692,33.3918293 C0.917144615,32.4080976 0.422695385,31.0378537 0.422695385,29.2759268 L0.422695385,20.0151463 L4.09649231,20.0151463 L4.09649231,28.7795366 C4.09649231,29.6857073 4.35611077,30.3708293 4.87273846,30.8323171 C5.30065231,31.2227073 5.83815385,31.4166098 6.48393846,31.4166098 C7.14929231,31.4166098 7.69592615,31.2227073 8.11992615,30.8323171 C8.63655385,30.3708293 8.89747692,29.6857073 8.89747692,28.7795366 L8.89747692,20.0151463 L12.5738831,20.0151463 L12.5738831,34.5035366" id="Fill-2" sketch:type="MSShapeGroup"></path>
                <path d="M28.1979569,34.5035366 L24.5228554,34.5035366 L24.5228554,25.7430244 C24.5228554,24.8368537 24.2632369,24.1491463 23.7400862,23.6863659 C23.3108677,23.2998537 22.7720615,23.1007805 22.1223631,23.1007805 C21.4530954,23.1007805 20.9038523,23.2998537 20.4772431,23.6863659 C19.9514831,24.1491463 19.6931692,24.8368537 19.6931692,25.7430244 L19.6931692,34.5035366 L16.0467692,34.5035366 L16.0467692,20.0151463 L19.6109785,20.0151463 L19.6109785,21.3491951 C20.5672615,20.3512439 21.7831631,19.8496829 23.2612923,19.8496829 C24.7028923,19.8496829 25.8509538,20.2762683 26.712,21.129439 C27.7035077,22.1092927 28.1979569,23.482122 28.1979569,25.2427561 L28.1979569,34.5035366" id="Fill-3" sketch:type="MSShapeGroup"></path>
                <path d="M31.7295508,14.6220732 L35.4059569,14.6220732 L35.4059569,17.5668049 L31.7295508,17.5668049 L31.7295508,14.6220732 Z M31.7295508,20.0151463 L35.4059569,20.0151463 L35.4059569,34.5035366 L31.7295508,34.5035366 L31.7295508,20.0151463 Z" id="Fill-4" sketch:type="MSShapeGroup"></path>
                <path d="M51.1670154,27.2464146 C51.1670154,28.7278293 51.0978708,29.8434146 50.9661046,30.5802439 C50.7625846,31.7901951 50.3294523,32.7131707 49.67584,33.3633902 C48.7991385,34.2372439 47.6080246,34.672878 46.1116308,34.672878 C44.6139323,34.672878 43.40064,34.1661463 42.4652308,33.1436341 L42.4652308,34.5035366 L38.9284185,34.5035366 L38.9284185,14.7048049 L42.60352,14.7048049 L42.60352,21.2923171 C43.4828308,20.3331463 44.6530708,19.8496829 46.1312,19.8496829 C47.6210708,19.8496829 48.8056615,20.2853171 49.6784492,21.157878 C50.3320615,21.8068049 50.7625846,22.7297805 50.9661046,23.9358537 C51.0978708,24.6791463 51.1670154,25.7805122 51.1670154,27.2464146 M47.488,27.2464146 C47.488,25.9692439 47.3849354,25.0501463 47.1840246,24.493 C46.8109046,23.5648537 46.0998892,23.1007805 45.0470646,23.1007805 C43.9916308,23.1007805 43.2793108,23.5648537 42.9101046,24.493 C42.70528,25.0501463 42.60352,25.9692439 42.60352,27.2464146 C42.60352,28.5261707 42.70528,29.4426829 42.9101046,29.9985366 C43.2793108,30.9460732 43.9916308,31.4166098 45.0470646,31.4166098 C46.0998892,31.4166098 46.8109046,30.9460732 47.1840246,29.9985366 C47.3849354,29.4426829 47.488,28.5261707 47.488,27.2464146" id="Fill-5" sketch:type="MSShapeGroup"></path>
                <path d="M64.5993354,34.5035366 L53.4592246,34.5035366 L53.4592246,31.754 L59.9431631,23.2714146 L53.8258215,23.2714146 L53.8258215,20.0151463 L64.5993354,20.0151463 L64.5993354,22.7698537 L58.0332062,31.2511463 L64.5993354,31.2511463 L64.5993354,34.5035366" id="Fill-6" sketch:type="MSShapeGroup"></path>
                <path d="M38.9284185,47.4096829 L64.5993354,47.4096829 L64.5993354,51.0434146 L38.9284185,51.0434146 L38.9284185,47.4096829 Z" id="Fill-7" sketch:type="MSShapeGroup"></path>
                <path d="M12.5738831,34.5035366 L9.01358769,34.5035366 L9.01358769,33.1694878 C8.056,34.1726098 6.84009846,34.672878 5.36457846,34.672878 C3.92297846,34.672878 2.76839385,34.2437073 1.90995692,33.3918293 C0.917144615,32.4080976 0.422695385,31.0378537 0.422695385,29.2759268 L0.422695385,20.0151463 L4.09649231,20.0151463 L4.09649231,28.7795366 C4.09649231,29.6857073 4.35611077,30.3708293 4.87273846,30.8323171 C5.30065231,31.2227073 5.83815385,31.4166098 6.48393846,31.4166098 C7.14929231,31.4166098 7.69592615,31.2227073 8.11992615,30.8323171 C8.63655385,30.3708293 8.89747692,29.6857073 8.89747692,28.7795366 L8.89747692,20.0151463 L12.5738831,20.0151463 L12.5738831,34.5035366" id="Fill-8" sketch:type="MSShapeGroup"></path>
                <path d="M28.1979569,34.5035366 L24.5228554,34.5035366 L24.5228554,25.7430244 C24.5228554,24.8368537 24.2632369,24.1491463 23.7400862,23.6863659 C23.3108677,23.2998537 22.7720615,23.1007805 22.1223631,23.1007805 C21.4530954,23.1007805 20.9038523,23.2998537 20.4772431,23.6863659 C19.9514831,24.1491463 19.6931692,24.8368537 19.6931692,25.7430244 L19.6931692,34.5035366 L16.0467692,34.5035366 L16.0467692,20.0151463 L19.6109785,20.0151463 L19.6109785,21.3491951 C20.5672615,20.3512439 21.7831631,19.8496829 23.2612923,19.8496829 C24.7028923,19.8496829 25.8509538,20.2762683 26.712,21.129439 C27.7035077,22.1092927 28.1979569,23.482122 28.1979569,25.2427561 L28.1979569,34.5035366" id="Fill-9" sketch:type="MSShapeGroup"></path>
                <path d="M31.7295508,14.6220732 L35.4059569,14.6220732 L35.4059569,17.5668049 L31.7295508,17.5668049 L31.7295508,14.6220732 Z M31.7295508,20.0151463 L35.4059569,20.0151463 L35.4059569,34.5035366 L31.7295508,34.5035366 L31.7295508,20.0151463 Z" id="Fill-10" sketch:type="MSShapeGroup"></path>
                <path d="M51.1670154,27.2464146 C51.1670154,28.7278293 51.0978708,29.8434146 50.9661046,30.5802439 C50.7625846,31.7901951 50.3294523,32.7131707 49.67584,33.3633902 C48.7991385,34.2372439 47.6080246,34.672878 46.1116308,34.672878 C44.6139323,34.672878 43.40064,34.1661463 42.4652308,33.1436341 L42.4652308,34.5035366 L38.9284185,34.5035366 L38.9284185,14.7048049 L42.60352,14.7048049 L42.60352,21.2923171 C43.4828308,20.3331463 44.6530708,19.8496829 46.1312,19.8496829 C47.6210708,19.8496829 48.8056615,20.2853171 49.6784492,21.157878 C50.3320615,21.8068049 50.7625846,22.7297805 50.9661046,23.9358537 C51.0978708,24.6791463 51.1670154,25.7805122 51.1670154,27.2464146 M47.488,27.2464146 C47.488,25.9692439 47.3849354,25.0501463 47.1840246,24.493 C46.8109046,23.5648537 46.0998892,23.1007805 45.0470646,23.1007805 C43.9916308,23.1007805 43.2793108,23.5648537 42.9101046,24.493 C42.70528,25.0501463 42.60352,25.9692439 42.60352,27.2464146 C42.60352,28.5261707 42.70528,29.4426829 42.9101046,29.9985366 C43.2793108,30.9460732 43.9916308,31.4166098 45.0470646,31.4166098 C46.0998892,31.4166098 46.8109046,30.9460732 47.1840246,29.9985366 C47.3849354,29.4426829 47.488,28.5261707 47.488,27.2464146" id="Fill-11" sketch:type="MSShapeGroup"></path>
                <path d="M64.5993354,34.5035366 L53.4592246,34.5035366 L53.4592246,31.754 L59.9431631,23.2714146 L53.8258215,23.2714146 L53.8258215,20.0151463 L64.5993354,20.0151463 L64.5993354,22.7698537 L58.0332062,31.2511463 L64.5993354,31.2511463 L64.5993354,34.5035366" id="Fill-12" sketch:type="MSShapeGroup"></path>
                <path d="M38.9284185,0.171170732 L64.5993354,0.171170732 L64.5993354,3.80490244 L38.9284185,3.80490244 L38.9284185,0.171170732 Z" id="Fill-13" sketch:type="MSShapeGroup"></path>
                <path d="M12.5738831,34.5035366 L9.01358769,34.5035366 L9.01358769,33.1694878 C8.056,34.1726098 6.84009846,34.672878 5.36457846,34.672878 C3.92297846,34.672878 2.76839385,34.2437073 1.90995692,33.3918293 C0.917144615,32.4080976 0.422695385,31.0378537 0.422695385,29.2759268 L0.422695385,20.0151463 L4.09649231,20.0151463 L4.09649231,28.7795366 C4.09649231,29.6857073 4.35611077,30.3708293 4.87273846,30.8323171 C5.30065231,31.2227073 5.83815385,31.4166098 6.48393846,31.4166098 C7.14929231,31.4166098 7.69592615,31.2227073 8.11992615,30.8323171 C8.63655385,30.3708293 8.89747692,29.6857073 8.89747692,28.7795366 L8.89747692,20.0151463 L12.5738831,20.0151463 L12.5738831,34.5035366" id="Fill-14" sketch:type="MSShapeGroup"></path>
                <path d="M28.1979569,34.5035366 L24.5228554,34.5035366 L24.5228554,25.7430244 C24.5228554,24.8368537 24.2632369,24.1491463 23.7400862,23.6863659 C23.3108677,23.2998537 22.7720615,23.1007805 22.1223631,23.1007805 C21.4530954,23.1007805 20.9038523,23.2998537 20.4772431,23.6863659 C19.9514831,24.1491463 19.6931692,24.8368537 19.6931692,25.7430244 L19.6931692,34.5035366 L16.0467692,34.5035366 L16.0467692,20.0151463 L19.6109785,20.0151463 L19.6109785,21.3491951 C20.5672615,20.3512439 21.7831631,19.8496829 23.2612923,19.8496829 C24.7028923,19.8496829 25.8509538,20.2762683 26.712,21.129439 C27.7035077,22.1092927 28.1979569,23.482122 28.1979569,25.2427561 L28.1979569,34.5035366" id="Fill-15" sketch:type="MSShapeGroup"></path>
                <path d="M31.7295508,14.6220732 L35.4059569,14.6220732 L35.4059569,17.5668049 L31.7295508,17.5668049 L31.7295508,14.6220732 Z M31.7295508,20.0151463 L35.4059569,20.0151463 L35.4059569,34.5035366 L31.7295508,34.5035366 L31.7295508,20.0151463 Z" id="Fill-16" sketch:type="MSShapeGroup"></path>
                <path d="M51.1670154,27.2464146 C51.1670154,28.7278293 51.0978708,29.8434146 50.9661046,30.5802439 C50.7625846,31.7901951 50.3294523,32.7131707 49.67584,33.3633902 C48.7991385,34.2372439 47.6080246,34.672878 46.1116308,34.672878 C44.6139323,34.672878 43.40064,34.1661463 42.4652308,33.1436341 L42.4652308,34.5035366 L38.9284185,34.5035366 L38.9284185,14.7048049 L42.60352,14.7048049 L42.60352,21.2923171 C43.4828308,20.3331463 44.6530708,19.8496829 46.1312,19.8496829 C47.6210708,19.8496829 48.8056615,20.2853171 49.6784492,21.157878 C50.3320615,21.8068049 50.7625846,22.7297805 50.9661046,23.9358537 C51.0978708,24.6791463 51.1670154,25.7805122 51.1670154,27.2464146 M47.488,27.2464146 C47.488,25.9692439 47.3849354,25.0501463 47.1840246,24.493 C46.8109046,23.5648537 46.0998892,23.1007805 45.0470646,23.1007805 C43.9916308,23.1007805 43.2793108,23.5648537 42.9101046,24.493 C42.70528,25.0501463 42.60352,25.9692439 42.60352,27.2464146 C42.60352,28.5261707 42.70528,29.4426829 42.9101046,29.9985366 C43.2793108,30.9460732 43.9916308,31.4166098 45.0470646,31.4166098 C46.0998892,31.4166098 46.8109046,30.9460732 47.1840246,29.9985366 C47.3849354,29.4426829 47.488,28.5261707 47.488,27.2464146" id="Fill-17" sketch:type="MSShapeGroup"></path>
                <path d="M64.5993354,34.5035366 L53.4592246,34.5035366 L53.4592246,31.754 L59.9431631,23.2714146 L53.8258215,23.2714146 L53.8258215,20.0151463 L64.5993354,20.0151463 L64.5993354,22.7698537 L58.0332062,31.2511463 L64.5993354,31.2511463 L64.5993354,34.5035366" id="Fill-18" sketch:type="MSShapeGroup"></path>
                <path d="M38.9284185,47.4096829 L64.5993354,47.4096829 L64.5993354,51.0434146 L38.9284185,51.0434146 L38.9284185,47.4096829 Z" id="Fill-19" sketch:type="MSShapeGroup"></path>
                <path d="M12.5738831,34.5035366 L9.01358769,34.5035366 L9.01358769,33.1694878 C8.056,34.1726098 6.84009846,34.672878 5.36457846,34.672878 C3.92297846,34.672878 2.76839385,34.2437073 1.90995692,33.3918293 C0.917144615,32.4080976 0.422695385,31.0378537 0.422695385,29.2759268 L0.422695385,20.0151463 L4.09649231,20.0151463 L4.09649231,28.7795366 C4.09649231,29.6857073 4.35611077,30.3708293 4.87273846,30.8323171 C5.30065231,31.2227073 5.83815385,31.4166098 6.48393846,31.4166098 C7.14929231,31.4166098 7.69592615,31.2227073 8.11992615,30.8323171 C8.63655385,30.3708293 8.89747692,29.6857073 8.89747692,28.7795366 L8.89747692,20.0151463 L12.5738831,20.0151463 L12.5738831,34.5035366" id="Fill-20" sketch:type="MSShapeGroup"></path>
                <path d="M28.1979569,34.5035366 L24.5228554,34.5035366 L24.5228554,25.7430244 C24.5228554,24.8368537 24.2632369,24.1491463 23.7400862,23.6863659 C23.3108677,23.2998537 22.7720615,23.1007805 22.1223631,23.1007805 C21.4530954,23.1007805 20.9038523,23.2998537 20.4772431,23.6863659 C19.9514831,24.1491463 19.6931692,24.8368537 19.6931692,25.7430244 L19.6931692,34.5035366 L16.0467692,34.5035366 L16.0467692,20.0151463 L19.6109785,20.0151463 L19.6109785,21.3491951 C20.5672615,20.3512439 21.7831631,19.8496829 23.2612923,19.8496829 C24.7028923,19.8496829 25.8509538,20.2762683 26.712,21.129439 C27.7035077,22.1092927 28.1979569,23.482122 28.1979569,25.2427561 L28.1979569,34.5035366" id="Fill-21" sketch:type="MSShapeGroup"></path>
                <path d="M31.7295508,14.6220732 L35.4059569,14.6220732 L35.4059569,17.5668049 L31.7295508,17.5668049 L31.7295508,14.6220732 Z M31.7295508,20.0151463 L35.4059569,20.0151463 L35.4059569,34.5035366 L31.7295508,34.5035366 L31.7295508,20.0151463 Z" id="Fill-22" sketch:type="MSShapeGroup"></path>
                <path d="M51.1670154,27.2464146 C51.1670154,28.7278293 51.0978708,29.8434146 50.9661046,30.5802439 C50.7625846,31.7901951 50.3294523,32.7131707 49.67584,33.3633902 C48.7991385,34.2372439 47.6080246,34.672878 46.1116308,34.672878 C44.6139323,34.672878 43.40064,34.1661463 42.4652308,33.1436341 L42.4652308,34.5035366 L38.9284185,34.5035366 L38.9284185,14.7048049 L42.60352,14.7048049 L42.60352,21.2923171 C43.4828308,20.3331463 44.6530708,19.8496829 46.1312,19.8496829 C47.6210708,19.8496829 48.8056615,20.2853171 49.6784492,21.157878 C50.3320615,21.8068049 50.7625846,22.7297805 50.9661046,23.9358537 C51.0978708,24.6791463 51.1670154,25.7805122 51.1670154,27.2464146 M47.488,27.2464146 C47.488,25.9692439 47.3849354,25.0501463 47.1840246,24.493 C46.8109046,23.5648537 46.0998892,23.1007805 45.0470646,23.1007805 C43.9916308,23.1007805 43.2793108,23.5648537 42.9101046,24.493 C42.70528,25.0501463 42.60352,25.9692439 42.60352,27.2464146 C42.60352,28.5261707 42.70528,29.4426829 42.9101046,29.9985366 C43.2793108,30.9460732 43.9916308,31.4166098 45.0470646,31.4166098 C46.0998892,31.4166098 46.8109046,30.9460732 47.1840246,29.9985366 C47.3849354,29.4426829 47.488,28.5261707 47.488,27.2464146" id="Fill-23" sketch:type="MSShapeGroup"></path>
                <path d="M64.6293415,34.1713171 L53.4892308,34.1713171 L53.4892308,31.4217805 L59.9731692,22.9391951 L53.8558277,22.9391951 L53.8558277,19.6829268 L64.6293415,19.6829268 L64.6293415,22.4376341 L58.0632123,30.9189268 L64.6293415,30.9189268 L64.6293415,34.1713171" id="Fill-24" sketch:type="MSShapeGroup"></path>
            </g>
        </g>
    </g>
</svg>

<?xml version="1.0" encoding="utf-8"?>
<!-- Generator: Adobe Illustrator 18.0.0, SVG Export Plug-In . SVG Version: 6.00 Build 0)  -->
<!DOCTYPE svg PUBLIC "-//W3C//DTD SVG 1.1//EN" "http://www.w3.org/Graphics/SVG/1.1/DTD/svg11.dtd">
<svg version="1.1" id="Layer_1" xmlns:sketch="http://www.bohemiancoding.com/sketch/ns"
	 xmlns="http://www.w3.org/2000/svg" xmlns:xlink="http://www.w3.org/1999/xlink" x="0px" y="0px" viewBox="0 0 65 52"
	 enable-background="new 0 0 65 52" xml:space="preserve">
<title>Unibz Logo Copy 10</title>
<desc>Created with Sketch.</desc>
<g id="Artboard-13" transform="translate(-50.000000, -32.000000)" sketch:type="MSArtboardGroup">
	<g id="Unibz-Logo-Copy-10" transform="translate(50.000000, 32.000000)" sketch:type="MSLayerGroup">
		<path id="Fill-1" sketch:type="MSShapeGroup" fill="#FFFFFF" d="M38.9,0.2h25.7v3.6H38.9V0.2z"/>
		<path id="Fill-2" sketch:type="MSShapeGroup" fill="#FFFFFF" d="M12.6,34.5H9v-1.3c-1,1-2.2,1.5-3.6,1.5c-1.4,0-2.6-0.4-3.5-1.3
			c-1-1-1.5-2.4-1.5-4.1V20h3.7v8.8c0,0.9,0.3,1.6,0.8,2.1c0.4,0.4,1,0.6,1.6,0.6c0.7,0,1.2-0.2,1.6-0.6c0.5-0.5,0.8-1.1,0.8-2.1V20
			h3.7V34.5"/>
		<path id="Fill-3" sketch:type="MSShapeGroup" fill="#FFFFFF" d="M28.2,34.5h-3.7v-8.8c0-0.9-0.3-1.6-0.8-2.1
			c-0.4-0.4-1-0.6-1.6-0.6c-0.7,0-1.2,0.2-1.6,0.6c-0.5,0.5-0.8,1.2-0.8,2.1v8.8H16V20h3.6v1.3c1-1,2.2-1.5,3.7-1.5
			c1.4,0,2.6,0.4,3.5,1.3c1,1,1.5,2.4,1.5,4.1V34.5"/>
		<path id="Fill-4" sketch:type="MSShapeGroup" fill="#FFFFFF" d="M31.7,14.6h3.7v2.9h-3.7V14.6z M31.7,20h3.7v14.5h-3.7V20z"/>
		<path id="Fill-5" sketch:type="MSShapeGroup" fill="#FFFFFF" d="M51.2,27.2c0,1.5-0.1,2.6-0.2,3.3c-0.2,1.2-0.6,2.1-1.3,2.8
			c-0.9,0.9-2.1,1.3-3.6,1.3c-1.5,0-2.7-0.5-3.6-1.5v1.4h-3.5V14.7h3.7v6.6c0.9-1,2-1.4,3.5-1.4c1.5,0,2.7,0.4,3.5,1.3
			c0.7,0.6,1.1,1.6,1.3,2.8C51.1,24.7,51.2,25.8,51.2,27.2 M47.5,27.2c0-1.3-0.1-2.2-0.3-2.8c-0.4-0.9-1.1-1.4-2.1-1.4
			c-1.1,0-1.8,0.5-2.1,1.4c-0.2,0.6-0.3,1.5-0.3,2.8c0,1.3,0.1,2.2,0.3,2.8c0.4,0.9,1.1,1.4,2.1,1.4c1.1,0,1.8-0.5,2.1-1.4
			C47.4,29.4,47.5,28.5,47.5,27.2"/>
		<path id="Fill-6" sketch:type="MSShapeGroup" fill="#FFFFFF" d="M64.6,34.5H53.5v-2.7l6.5-8.5h-6.1V20h10.8v2.8L58,31.3h6.6V34.5"
			/>
		<path id="Fill-7" sketch:type="MSShapeGroup" fill="#FFFFFF" d="M38.9,47.4h25.7V51H38.9V47.4z"/>
	</g>
</g>
</svg>
